src/assets/icons/Forwards.svg

<svg width="24" height="24" viewBox="0 0 24 24" fill="none" xmlns="http://www.w3.org/2000/svg">
<path d="M12 1C14.915 1 17.7383 2.16418 19.8356 4.10835L21.8266 2.11836C22.0238 1.92131 22.3189 1.86256 22.5755 1.96898C22.8323 2.07523 23 2.32649 23 2.60411V8.5625C23 8.942 22.692 9.25 22.3125 9.25H16.3541C16.0755 9.25 15.8252 9.08232 15.719 8.82552C15.6126 8.56888 15.6713 8.2728 15.8684 8.07658L18.5312 5.41286C16.7759 3.80505 14.4301 2.83339 12 2.83339C6.94547 2.83339 2.83339 6.94547 2.83339 12C2.83339 17.0545 6.94547 21.1666 12 21.1666C14.4512 21.1666 16.7511 20.2116 18.4754 18.479C18.8329 18.1197 19.414 18.1187 19.7715 18.4762C20.1308 18.8337 20.1327 19.414 19.7752 19.7733C17.7034 21.8541 14.9425 23 12 23C5.93436 23 1 18.0656 1 12C1 5.93436 5.93436 1 12 1Z" fill="white"/>
</svg>

<svg xmlns="http://www.w3.org/2000/svg" width="24" height="24" fill="none"><path fill="#fff" d="M12 1c2.915 0 5.738 1.164 7.836 3.108l1.99-1.99A.687.687 0 0 1 23 2.604v5.958c0 .38-.308.688-.688.688h-5.958a.687.687 0 0 1-.486-1.173l2.663-2.664c-1.755-1.608-4.1-2.58-6.531-2.58-5.055 0-9.167 4.112-9.167 9.167S6.945 21.167 12 21.167a9.073 9.073 0 0 0 6.475-2.688.917.917 0 0 1 1.3 1.294A10.895 10.895 0 0 1 12 23C5.934 23 1 18.066 1 12S5.934 1 12 1Z"/></svg>
